X: 4382
T: Elsie Marly.
T: Country Bumpkin.
%R: jig
B: Niel Gow & Sons "Complete Repository" v.4 p.38 #2
Z: 2021 John Chambers <jc:trillian.mit.edu>
M: 6/8
L: 1/8
K: G
% - - - - - - - - - -
V: 1 staves=2
|:\
(TB>AB) G2G | G2g- gdc | T(B>AB) G2G | =F2f- fcA |\
T(B>AB) G2G | G2g- gdB | cac BgB | A2=f- fcA :|
|:\
Bcd ded | d2g- gdc | Bcd dcB | A2=f- fcA |\
Bcd ded | d2g- gdB | cac BgB | A2=f- fcA :|
|:\
G2g- gdB | gdB gdB | =F2f- fcA | fcA fcA |\
G2g- gdB | gdB gdB | cac BgB | A2=f- fcA :|
% - - - - - - - - - -
V: 2 clef=bass middle=d
|: g3g3 | g3g3 |  g3g3 | =f3f3 | g3g3 | g3g3 | a3g3 | =f3f3 :|
|: g3g3 | g3g3 |  g3g3 | =f3f3 | g3g3 | g3g3 | a3g3 | =f3f3 :|
|: g3g3 | g3g3 | =f3f3 | =f3f3 | g3g3 | g3g3 | a3g3 | =f3f3 :|
